src/assets/svg/svgBottlePet.svg

<svg xmlns="http://www.w3.org/2000/svg" xml:space="preserve" style="fill-rule:evenodd;clip-rule:evenodd" viewBox="0 0 512 512"><path d="m1944.53 458.49 15.26-.02c.28 0 .51-.23.51-.51l-.01-1.98c0-3.133-2.64-5.706-5.84-5.7h-4.62c-3.2.006-5.82 2.588-5.82 5.72l.01 1.98c0 .28.23.51.51.51m-.98 4.61c-.96 5.78-5.35 9.61-7.69 14.77-1.61 3.533-1.89 7.767-.85 12.7.06.3.24.45.55.45l33.19-.01q.495 0 .6-.48c1.01-4.487.86-8.45-.47-11.89-1.65-4.27-4.84-7.64-6.96-11.72-.61-1.17-.78-2.52-1.13-3.78a.856.856 0 0 0-.83-.63l-15.73.01c-.39 0-.61.193-.68.58m24.94 32.36c0-.203-.17-.37-.37-.37h-31.9c-.2 0-.37.167-.37.37v31.84c0 .203.17.37.37.37h31.9c.2 0 .37-.167.37-.37v-31.84m-21.45 51.27c3.23 1.76 6.54 1.833 9.92.22.33-.153.65-.16.98-.02 5.95 2.607 9.87.92 11.75-5.06.78-2.48.7-5.677-.25-9.59q-.135-.55-.69-.55l-33.26.01q-.525 0-.63.51c-1.08 5.42-1.53 14.9 6.22 15.78q3.225.37 5.28-1.24a.58.58 0 0 1 .68-.06" style="fill-rule:nonzero;stroke:#000;stroke-width:2px" transform="rotate(90 5821.095 -3194.995)scale(4.75498)"/><path d="M1944.53 458.49c-.28 0-.51-.23-.51-.51l-.01-1.98c0-3.132 2.62-5.714 5.82-5.72h4.62c3.2-.006 5.84 2.567 5.84 5.7l.01 1.98c0 .28-.23.51-.51.51zm-8.67 19.38c2.34-5.16 6.73-8.99 7.69-14.77.07-.387.29-.58.68-.58l15.73-.01c.39-.001.73.259.83.63.35 1.26.52 2.61 1.13 3.78 2.12 4.08 5.31 7.45 6.96 11.72 1.33 3.44 1.48 7.403.47 11.89q-.105.48-.6.48l-33.19.01c-.31 0-.49-.15-.55-.45-1.04-4.933-.76-9.167.85-12.7" style="fill-rule:nonzero" transform="rotate(90 5821.095 -3194.995)scale(4.75498)"/><path d="M271.586 344.04H117.411c-.205 0-.371-.142-.371-.38V189.218c0-.237.166-.38.37-.38h154.176c.205 0 .371.143.371.38V343.66c0 .238-.166.38-.37.38"/><path d="M1946.36 546.79q-2.055 1.61-5.28 1.24c-7.75-.88-7.3-10.36-6.22-15.78q.105-.51.63-.51l33.26-.01q.555 0 .69.55c.95 3.913 1.03 7.11.25 9.59-1.88 5.98-5.8 7.667-11.75 5.06-.33-.14-.65-.133-.98.02-3.38 1.613-6.69 1.54-9.92-.22a.58.58 0 0 0-.68.06" style="fill-rule:nonzero" transform="rotate(90 5821.095 -3194.995)scale(4.75498)"/></svg>

<?xml version="1.0" encoding="UTF-8" standalone="no"?>
<!DOCTYPE svg PUBLIC "-//W3C//DTD SVG 1.1//EN" "http://www.w3.org/Graphics/SVG/1.1/DTD/svg11.dtd">
<svg width="100%" height="100%" viewBox="0 0 512 512" version="1.1" xmlns="http://www.w3.org/2000/svg" xmlns:xlink="http://www.w3.org/1999/xlink" xml:space="preserve" xmlns:serif="http://www.serif.com/" style="fill-rule:evenodd;clip-rule:evenodd;">
    <g transform="matrix(2.91159e-16,4.75498,-4.75498,2.91159e-16,2626.1,-9016.09)">
        <path d="M1944.53,458.49L1959.79,458.47C1960.07,458.47 1960.3,458.24 1960.3,457.96C1960.3,457.96 1960.29,455.98 1960.29,455.98C1960.29,452.847 1957.65,450.274 1954.45,450.28C1954.45,450.28 1949.83,450.28 1949.83,450.28C1946.63,450.286 1944.01,452.868 1944.01,456L1944.02,457.98C1944.02,458.26 1944.25,458.49 1944.53,458.49" style="fill-rule:nonzero;stroke:black;stroke-width:2px;"/>
        <path d="M1943.55,463.1C1942.59,468.88 1938.2,472.71 1935.86,477.87C1934.25,481.403 1933.97,485.637 1935.01,490.57C1935.07,490.87 1935.25,491.02 1935.56,491.02L1968.75,491.01C1969.08,491.01 1969.28,490.85 1969.35,490.53C1970.36,486.043 1970.21,482.08 1968.88,478.64C1967.23,474.37 1964.04,471 1961.92,466.92C1961.31,465.75 1961.14,464.4 1960.79,463.14C1960.69,462.769 1960.35,462.509 1959.96,462.51L1944.23,462.52C1943.84,462.52 1943.62,462.713 1943.55,463.1" style="fill-rule:nonzero;stroke:black;stroke-width:2px;"/>
        <path d="M1968.49,495.46C1968.49,495.257 1968.32,495.09 1968.12,495.09L1936.22,495.09C1936.02,495.09 1935.85,495.257 1935.85,495.46L1935.85,527.3C1935.85,527.503 1936.02,527.67 1936.22,527.67L1968.12,527.67C1968.32,527.67 1968.49,527.503 1968.49,527.3L1968.49,495.46" style="fill-rule:nonzero;stroke:black;stroke-width:2px;"/>
        <path d="M1947.04,546.73C1950.27,548.49 1953.58,548.563 1956.96,546.95C1957.29,546.797 1957.61,546.79 1957.94,546.93C1963.89,549.537 1967.81,547.85 1969.69,541.87C1970.47,539.39 1970.39,536.193 1969.44,532.28C1969.35,531.913 1969.12,531.73 1968.75,531.73L1935.49,531.74C1935.14,531.74 1934.93,531.91 1934.86,532.25C1933.78,537.67 1933.33,547.15 1941.08,548.03C1943.23,548.277 1944.99,547.863 1946.36,546.79C1946.57,546.623 1946.8,546.603 1947.04,546.73" style="fill-rule:nonzero;stroke:black;stroke-width:2px;"/>
        <path d="M1944.53,458.49C1944.25,458.49 1944.02,458.26 1944.02,457.98L1944.01,456C1944.01,452.868 1946.63,450.286 1949.83,450.28C1949.83,450.28 1954.45,450.28 1954.45,450.28C1957.65,450.274 1960.29,452.847 1960.29,455.98C1960.29,455.98 1960.3,457.96 1960.3,457.96C1960.3,458.24 1960.07,458.47 1959.79,458.47L1944.53,458.49Z" style="fill-rule:nonzero;"/>
        <path d="M1935.86,477.87C1938.2,472.71 1942.59,468.88 1943.55,463.1C1943.62,462.713 1943.84,462.52 1944.23,462.52L1959.96,462.51C1960.35,462.509 1960.69,462.769 1960.79,463.14C1961.14,464.4 1961.31,465.75 1961.92,466.92C1964.04,471 1967.23,474.37 1968.88,478.64C1970.21,482.08 1970.36,486.043 1969.35,490.53C1969.28,490.85 1969.08,491.01 1968.75,491.01L1935.56,491.02C1935.25,491.02 1935.07,490.87 1935.01,490.57C1933.97,485.637 1934.25,481.403 1935.86,477.87Z" style="fill-rule:nonzero;"/>
        <path d="M1968.49,495.168L1968.49,527.592C1968.49,527.635 1968.46,527.67 1968.41,527.67L1935.93,527.67C1935.88,527.67 1935.85,527.635 1935.85,527.592L1935.85,495.168C1935.85,495.125 1935.88,495.09 1935.93,495.09L1968.41,495.09C1968.46,495.09 1968.49,495.125 1968.49,495.168Z"/>
        <path d="M1946.36,546.79C1944.99,547.863 1943.23,548.277 1941.08,548.03C1933.33,547.15 1933.78,537.67 1934.86,532.25C1934.93,531.91 1935.14,531.74 1935.49,531.74L1968.75,531.73C1969.12,531.73 1969.35,531.913 1969.44,532.28C1970.39,536.193 1970.47,539.39 1969.69,541.87C1967.81,547.85 1963.89,549.537 1957.94,546.93C1957.61,546.79 1957.29,546.797 1956.96,546.95C1953.58,548.563 1950.27,548.49 1947.04,546.73C1946.8,546.603 1946.57,546.623 1946.36,546.79Z" style="fill-rule:nonzero;"/>
    </g>
</svg>
